X:1
T:Keep On Believing
T:Keep On Believing
T:Charles Hutchinson Gabriel
T:Carrie Elizabeth Ellis Breck, 1909
T:Public Domain Courtesy of the Cyber Hymnal™
T:Public Domain Courtesy of the Cyber Hymnal™
C:Charles Hutchinson Gabriel
Z:Public Domain
Z:Courtesy of the Cyber Hymnal™
%%score ( 1 2 ) ( 3 4 )
L:1/8
Q:1/4=100
M:4/4
K:F
V:1 treble 
V:2 treble 
V:3 bass 
V:4 bass 
V:1
 [FA]2 [F^G][FA] [CF]2 (AB) | [Fc]2 [F=B][FB] [Fc]4 | [GB]2 [^FA][GB] [EG]2 [Ec]2 | %3
w: 1.~When you re- ceive no *|an- swer to prayer,|Nev- er lose faith nor|
w: 2.~Doubt not the Lord when *|tempt- ed and tried;|Worlds pass a- way, His|
w: 3.~Tho’ you should walk in *|dark- ness a- while,|Ov- er the thorns for|
 [FA]2 [FG][FA] [EG]4 | [FA]2 [F^G][FA] [CF]2 [FA][FB] | [Fc]2 [F=B][FB] [Fc]4 | %6
w: yield to des- pair.|Give un- to Je- sus your|bur- den of care,|
w: Word shall a- bide!|He is al- might- y, in|Him you may hide,|
w: ma- ny a mile,|Watch for the dawn- ing, and|sing with a smile,|
 [Fd]2 [Fd]>[Fd] [Fc][Fc][FA]F | [FA]>[FA] [EG][CG] [CF]4 ||"^Refrain" [Fc]2 [Fc]>F [FA] c3 | %9
w: |||
w: Keep on be- liev- ing in the|prom- is- es of God.|Keep on be- liev- ing,|
w: |||
 [Fd]2 [Fd]>[DF] [DB] d3 | [Fc]2 [Fc]>[Fc] [Fd][Fc][FA]F | [FA]>[EG] [EG][^D^F] [EG]4 | %12
w: |||
w: keep on be- liev- ing,|Keep on be- liev- ing in the|prom- is- es of God;|
w: |||
 [FA][FA][FA][CG] [CG][CF] [CF]2 | [CG][CG][FA][FA] [FB][Fc] !fermata![Fd]2 | %14
w: ||
w: Tho’ de- lay may long en- dure,|Yet the an- swer will be sure:|
w: ||
 [Fc]2 [Fc]>[Fc] [Fd][Fc][FA]F | [FA]>[FA] [EG][CG] [CF]4 |] %16
w: ||
w: Keep on be- liev- ing in the|prom- is- es of God.|
w: ||
V:2
 x6 F2 | x8 | x8 | x8 | x8 | x8 | x7 F | x8 || x7/2 F/ x/ (FFF) x/ | x5 (FFF) | x7 F | x8 | x8 | %13
 x8 | x7 F | x8 |] %16
V:3
 [F,C]2 [F,=B,][F,C] [F,A,]2 (CG,) | [F,A,]2 [F,^G,][F,G,] [F,A,]4 | %2
w: ||
 [C,C]2 [C,C][C,C] [C,C]2 [C,C]2 | [F,C]2 [D,=B,][G,,B,] [C,C]4 | %4
w: ||
 [F,C]2 [F,=B,][F,C] [F,A,]2 [F,C][F,G,] | [F,A,]2 [F,^G,][F,G,] [F,A,]4 | %6
w: ||
 [B,,B,]2 [B,,B,]>[B,,B,] [F,A,][F,A,][F,C][F,A,] | [C,C]>[C,C] [C,B,][C,B,] [F,A,]4 || %8
w: ||
 [F,A,]2 [F,A,]>[F,A,] [F,C][F,A,][F,A,][F,A,] | %9
w: * * * * * trust- ing,|
 [B,,B,]2 [B,,B,]>[B,,B,] [B,,F,][B,,B,][B,,B,][B,,B,] | %10
w: * * * * * trust- ing,|
 [F,A,]2 [F,A,]>[F,A,] [F,B,][F,A,][F,C][F,A,] | [C,C]>[C,C] [C,C][C,C] [C,C]4 | %12
w: ||
 [F,C][F,C][F,C][F,B,] [F,B,][F,A,] [F,A,]2 | %13
w: |
 [E,C][E,C][_E,C][E,C] [D,B,][C,A,] !fermata![B,,B,]2 | %14
w: |
 [F,A,]2 [F,A,]>[F,A,] [F,B,][F,A,][F,C][F,A,] | [C,C]>[C,C] [C,B,][C,B,] [F,A,]4 |] %16
w: ||
V:4
 x6 F,2 | x8 | x8 | x8 | x8 | x8 | x8 | x8 || x8 | x8 | x8 | x8 | x8 | x8 | x8 | x8 |] %16

